X: 19
T: Tarantella Siciliana (Em)
R: tarantella
O: Italy
B:
D:
Z: 1999 John Chambers <jc@trillian.mit.edu>
M: 6/8
L: 1/8
K: Em
   Bef \
| "Em"g>ag "B7"f>gf | "Em"e2b fbb | "B7"fbb fbb | "Em"gfe Bef \
| "Em"g>ag "B7"f>gf | "Em"e2b fbb | "B7"fbb fbb | "Em"e3 :|
|: bc'b \
| "B7"afg  aba | "Em"gef gag | "B7"f^de fga | "Em"bge b2b \
| "B7"afg  aba | "Em"gef gag | "B7"fc'b agf | "Em"e3 :|
|: EGB \
| "Em"ez2 "Am"ez2 | "Em"e3 zdc | "B7"BcB AGF | FBG "Em"E2z \
| "Em"ez2 "Am"ez2 | "Em"e3 zdc | "B7"BcB AGF | "Em fine"E3  :|
|: zBc \
| "G"dBG dBG | dBG ded | "D7"cBA cBA | "G"dBG zBc \
| "G"dBG dBG | dBG d^cd | "D7"fed cBA | "G"G3 :|
|: zGF \
| "Em"EzE- EEG | BzB- BzB | "B7"AFG ABA | "Em"GFE zGF \
| "Em"EzE- EEG | BzB- B^AB | "B7"dcB AGF | "Em"E3 :|

%%sep 1 1 500
%%sep 1 1 500


